assets/svg/1F3BD.svg

<svg xmlns="http://www.w3.org/2000/svg" viewBox="0 0 64 64" enable-background="new 0 0 64 64"><g transform="translate(10)"><g fill="#c26c29"><path d="m.54 63.06c0 0-2.377-5.118 3.44-11.01 5.815-5.89 5.302 1.031 5.302 1.031l.955 2.725-4.49 3.753-5.207 3.499"/><path d="m45.15.299c0 0-7.678-1.656-12.645 9.455-4.966 11.11 3.732 7.673 3.732 7.673l3.943.41 2.814-8.275 2.156-9.263"/></g><path d="m9.07 2.077c0 0 8.134 6.06 25.395 0l-1.727 9.192-9.122 9.528-10.11-2.801-3.207-8.522-1.229-7.397" fill="#26799e"/><g fill="#45a7dd"><path d="m41.537 24.15c-9.06-.847-1.856-20.15-1.856-20.15-1.191-1.628-3.657-1.962-5.605-1.938-1.689-.018-3.073.255-3.073.255-.081.188-.163.375-.247.555-.143 5.486-4.391 9.906-9.67 10.07-5.28-.167-9.526-4.586-9.671-10.07-.082-.18-.165-.366-.245-.555 0 0-1.386-.272-3.075-.255-1.948-.024-4.415.31-5.607 1.938 0 0 7.205 19.304-1.856 20.15 0 0-1.421 2.687 0 5.08 0 0 1.888 9.445 1.323 19.21.031.012.059.023.086.037-.051.792-.118 1.59-.204 2.386.004.014.853 4.537 3.943 5.504 1.556.271 3.418.559 5.441.813.004.012.008.021.014.033 2.528.313 5.317.566 8.114.639l0 0c.059.002.116.002.17.004.077.002.151.002.228.004.239.004.48.008.719.001.151.002.302 0 .453 0 .055 0 .11 0 .165 0 .057 0 .109 0 .168 0 .149 0 .298.002.449 0 .241-.002.48-.006.719-.001.075-.002.151-.002.226-.004.059-.002.116-.002.172-.004l0 0c3.918-.102 7.822-.555 11.01-1.037 0-.014.004-.025.004-.037.913-.137 1.771-.276 2.552-.411 3.091-.967 3.941-5.49 3.943-5.504-.047-.455-.09-.907-.129-1.362.023-.014.053-.029.078-.045-.765-10.113 1.257-20.225 1.257-20.225 1.422-2.393.0001-5.08.0001-5.08"/><path d="m23.642 45.726c-.137-.523-.284-1.047-.433-1.566-.037-.121-.079-.241-.104-.323-.249-.771-.476-1.555-.696-2.334-.431-1.545-.829-3.096-1.162-4.663-.923-4.314-1.548-8.634-1.882-13.02-.28-3.675-.304-7.399-.025-11.1-4.441-.962-7.799-4.988-7.926-9.855-.082-.18-.165-.366-.245-.555 0 0-1.386-.272-3.075-.255-1.947-.024-4.414.31-5.606 1.938 0 0 7.205 19.304-1.856 20.15 0 0-1.421 2.687 0 5.08 0 0 1.888 9.445 1.323 19.21.031.012.059.023.086.037-.051.792-.118 1.59-.204 2.386.004.014.853 4.537 3.943 5.504 1.556.271 3.418.559 5.441.813.004.012.008.021.014.033 2.528.313 5.317.566 8.114.639l0 0c.059.002.116.002.17.004.077.002.151.002.228.004.239.004.48.008.719.001.151.002.302 0 .453 0 .055 0 .11 0 .165 0 .057 0 .109 0 .168 0 .149 0 .298.002.449 0 .241-.002.48-.006.719-.001.075-.002.151-.002.226-.004.059-.002.116-.002.172-.004l0 0c1.229-.033 2.456-.1 3.659-.19-.971-3.996-1.792-8.03-2.835-11.933"/></g><path d="m45.72.389c-.747-.525-1.835-.508-3.191-.014-.043 6.07-6.423 19.467-16.379 33.576-9.958 14.11-20.444 24.612-26.15 26.682-.001 1.448.339 2.478 1.083 3 3.877 2.737 17.01-9.204 29.337-26.67 12.325-17.464 19.17-33.843 15.299-36.577" fill="#f69220"/></g></svg>

<?xml version="1.0" encoding="UTF-8" standalone="no"?>
<!-- Generator: Adobe Illustrator 16.0.0, SVG Export Plug-In . SVG Version: 6.00 Build 0)  -->

<svg
   xmlns:dc="http://purl.org/dc/elements/1.1/"
   xmlns:cc="http://creativecommons.org/ns#"
   xmlns:rdf="http://www.w3.org/1999/02/22-rdf-syntax-ns#"
   xmlns:svg="http://www.w3.org/2000/svg"
   xmlns="http://www.w3.org/2000/svg"
   xmlns:sodipodi="http://sodipodi.sourceforge.net/DTD/sodipodi-0.dtd"
   xmlns:inkscape="http://www.inkscape.org/namespaces/inkscape"
   version="1.1"
   id="Layer_1"
   x="0px"
   y="0px"
   width="64px"
   height="64px"
   viewBox="0 0 64 64"
   enable-background="new 0 0 64 64"
   xml:space="preserve"
   inkscape:version="0.48.5 r10040"
   sodipodi:docname="1F3BD.svg"
   inkscape:export-filename="D:\TESTINGEMOJI\SVGTEST\1F3BD.png"
   inkscape:export-xdpi="90"
   inkscape:export-ydpi="90"><metadata
   id="metadata4819"><rdf:RDF><cc:Work
       rdf:about=""><dc:format>image/svg+xml</dc:format><dc:type
         rdf:resource="http://purl.org/dc/dcmitype/StillImage" /><dc:title></dc:title></cc:Work></rdf:RDF></metadata><defs
   id="defs4817" /><sodipodi:namedview
   pagecolor="#ffffff"
   bordercolor="#666666"
   borderopacity="1"
   objecttolerance="10"
   gridtolerance="10"
   guidetolerance="10"
   inkscape:pageopacity="0"
   inkscape:pageshadow="2"
   inkscape:window-width="640"
   inkscape:window-height="480"
   id="namedview4815"
   showgrid="false"
   inkscape:zoom="10.375"
   inkscape:cx="32"
   inkscape:cy="32"
   inkscape:window-x="951"
   inkscape:window-y="344"
   inkscape:window-maximized="0"
   inkscape:current-layer="Layer_1" />
<g
   id="g4801"
   transform="translate(10,0)">
	<path
   d="m 0.54,63.06 c 0,0 -2.377,-5.118 3.44,-11.008 5.815,-5.89 5.302,1.031 5.302,1.031 l 0.955,2.725 -4.49,3.753 -5.207,3.499 z"
   id="path4803"
   inkscape:connector-curvature="0"
   style="fill:#c26c29" />
	<path
   d="m 45.151,0.299 c 0,0 -7.678,-1.656 -12.645,9.455 -4.966,11.113 3.732,7.673 3.732,7.673 l 3.943,0.41 2.814,-8.275 2.156,-9.263 z"
   id="path4805"
   inkscape:connector-curvature="0"
   style="fill:#c26c29" />
	<path
   d="m 9.066,2.077 c 0,0 8.134,6.056 25.395,0 L 32.734,11.269 23.612,20.797 13.502,17.996 10.295,9.474 9.066,2.077 z"
   id="path4807"
   inkscape:connector-curvature="0"
   style="fill:#26799e" />
	<path
   d="M 41.537,24.148 C 32.475,23.301 39.681,3.997 39.681,3.997 38.49,2.369 36.024,2.035 34.076,2.059 32.387,2.041 31.003,2.314 31.003,2.314 30.922,2.502 30.84,2.689 30.756,2.869 30.613,8.355 26.365,12.775 21.086,12.941 15.806,12.774 11.56,8.355 11.415,2.869 11.333,2.689 11.25,2.503 11.17,2.314 c 0,0 -1.386,-0.272 -3.075,-0.255 -1.948,-0.024 -4.415,0.31 -5.607,1.938 0,0 7.205,19.304 -1.856,20.151 0,0 -1.421,2.687 0,5.08 0,0 1.888,9.445 1.323,19.209 0.031,0.012 0.059,0.023 0.086,0.037 -0.051,0.792 -0.118,1.59 -0.204,2.386 0.004,0.014 0.853,4.537 3.943,5.504 1.556,0.271 3.418,0.559 5.441,0.813 0.004,0.012 0.008,0.021 0.014,0.033 2.528,0.313 5.317,0.566 8.114,0.639 l 0,0 c 0.059,0.002 0.116,0.002 0.17,0.004 0.077,0.002 0.151,0.002 0.228,0.004 0.239,0.004 0.48,0.008 0.719,0.01 0.151,0.002 0.302,0 0.453,0 0.055,0 0.11,0 0.165,0 0.057,0 0.109,0 0.168,0 0.149,0 0.298,0.002 0.449,0 0.241,-0.002 0.48,-0.006 0.719,-0.01 0.075,-0.002 0.151,-0.002 0.226,-0.004 0.059,-0.002 0.116,-0.002 0.172,-0.004 l 0,0 c 3.918,-0.102 7.822,-0.555 11.013,-1.037 0,-0.014 0.004,-0.025 0.004,-0.037 0.913,-0.137 1.771,-0.276 2.552,-0.411 3.091,-0.967 3.941,-5.49 3.943,-5.504 -0.047,-0.455 -0.09,-0.907 -0.129,-1.362 0.023,-0.014 0.053,-0.029 0.078,-0.045 -0.765,-10.113 1.257,-20.225 1.257,-20.225 1.422,-2.393 10e-4,-5.08 10e-4,-5.08 z"
   id="path4809"
   inkscape:connector-curvature="0"
   style="fill:#45a7dd" />
	<path
   d="M 23.642,45.726 C 23.505,45.203 23.358,44.679 23.209,44.16 23.172,44.039 23.13,43.919 23.105,43.837 22.856,43.066 22.629,42.282 22.409,41.503 21.978,39.958 21.58,38.407 21.247,36.84 20.324,32.526 19.699,28.206 19.365,23.823 19.085,20.148 19.061,16.424 19.34,12.724 14.899,11.762 11.541,7.736 11.414,2.869 11.332,2.689 11.249,2.503 11.169,2.314 c 0,0 -1.386,-0.272 -3.075,-0.255 -1.947,-0.024 -4.414,0.31 -5.606,1.938 0,0 7.205,19.304 -1.856,20.151 0,0 -1.421,2.687 0,5.08 0,0 1.888,9.445 1.323,19.209 0.031,0.012 0.059,0.023 0.086,0.037 -0.051,0.792 -0.118,1.59 -0.204,2.386 0.004,0.014 0.853,4.537 3.943,5.504 1.556,0.271 3.418,0.559 5.441,0.813 0.004,0.012 0.008,0.021 0.014,0.033 2.528,0.313 5.317,0.566 8.114,0.639 l 0,0 c 0.059,0.002 0.116,0.002 0.17,0.004 0.077,0.002 0.151,0.002 0.228,0.004 0.239,0.004 0.48,0.008 0.719,0.01 0.151,0.002 0.302,0 0.453,0 0.055,0 0.11,0 0.165,0 0.057,0 0.109,0 0.168,0 0.149,0 0.298,0.002 0.449,0 0.241,-0.002 0.48,-0.006 0.719,-0.01 0.075,-0.002 0.151,-0.002 0.226,-0.004 0.059,-0.002 0.116,-0.002 0.172,-0.004 l 0,0 c 1.229,-0.033 2.456,-0.1 3.659,-0.19 -0.971,-3.996 -1.792,-8.033 -2.835,-11.933 z"
   id="path4811"
   inkscape:connector-curvature="0"
   style="fill:#45a7dd" />
	<path
   d="M 45.72,0.389 C 44.973,-0.136 43.885,-0.119 42.529,0.375 42.486,6.445 36.106,19.842 26.15,33.951 16.192,48.06 5.706,58.563 0.001,60.633 -0.009,62.081 0.34,63.111 1.084,63.636 4.961,66.373 18.097,54.432 30.421,36.966 42.746,19.502 49.594,3.123 45.72,0.389 z"
   id="path4813"
   inkscape:connector-curvature="0"
   style="fill:#f69220" />
</g>
</svg>
